X: 1025
T: Debka Gilboa
O: Israel
C: Emanuel Amiran 1947
D: Israeli Folk Dance Festival
M: 4/4
L: 1/8
K: Dm
Q:1/4=144
%%MIDI program 56 Trumpet
%%MIDI bassprog 45 Pizzicato Strings
%%MIDI bassvol 84
%%MIDI gchord fzff
"Gm"G2z2 G2z2|G2z2 A2G2|\
"F"F2GA "Dm"BzBz|F2GA "Gm"G2z2|:
"Dm"DE2D EDFE|DE2G FED2|\
"Am"CD2C D2GE|FEDC "Dm"D4:|
K: Am
%%MIDI gchord fzfz
"Am"A3G/^F/ "Em"E4|"Am"AGEG A2z2|\
A3B/A/ "G" G4|"Am"cBAG "Am"A2z2:|
